X:44
T:Sean Ryans (2)
R:Jig
S:Paddy Canny and Peter O'Loughlin, Clare (fiddles)
N:As played (P O'L much the louder)
Z:Bernie Stocks
M:6/8
K:G
EAA A2B | cAB cAG | ~E3 ~G3 | G,B,D GFG | EAA A2B | cAB cde | gfg (3efge 
|1 dBG A2G :|2 dBG A2a || {b}aea {b}aef | gdg gdg | aea aef | gfe deg |
{b}aea {b}aef | gdg gdg | gfg (3efge | dBG A2a | {b}aea {b}aef | gdg gdg | 
~a3 aef | gfe def | g2e fed | edB GBd | gfg (3efge | dBG A2G ||
<end>
<start>
